desc:Saike BandJoiner

in_pin:left input 1
in_pin:right input 1
in_pin:left input 2
in_pin:right input 2
in_pin:left input 3
in_pin:right input 3
in_pin:left input 4
in_pin:right input 4
in_pin:left input 5
in_pin:right input 5
out_pin:left output
out_pin:right output

@init

@slider

@block

@sample
spl0 = spl0 + spl2 + spl4 + spl6 + spl8;
spl1 = spl1 + spl3 + spl5 + spl7 + spl9;


